X:1
T: Lady Catherine Pelham's Reel
C:R. Mackintosh
R:Reel
Q: 232
K:Gm
M:4/4
L:1/8
|:d|g2 bg a^f gd|ec dG ^FG AD|g1/2^f1/2g1/2a1/2 bg af gd|ec Ad BG Gd|
g2 bg a^f gd|ec dG ^FG AD|g1/2^f1/2g1/2a1/2 bg af gd|ec Ad BG Gd|
Bd gf e2 Ec|Ac fe d2 DB|GB ed cB AG|^F1/2G1/2A Dd BG Gd|
BG Gg ec cf|AF Ff dB Be|GE Ee cA Ad|^FD d1/2c1/2B1/2A1/2 BG G:|
